X:19176
T:Yanky Doodle. JC.201
M:C
L:1/8
Q:140
S:John Clare,Poet,Helpstone (1793-1864)
R:Air
O:England150
A:Northamptonshire
N:
Z:P Headford
K:E
eefg eedB|eefge2dB|eefg agfe|BGcde2e2:|!
|:c>dcA cde2|B>cBAG2B2|c>dcA cde2|c>edfe2e2:|]
